X:1
T:R. R. Chope
T:St. Cyprian
%%score { ( 1 2 ) | ( 3 4 ) }
L:1/8
Q:1/4=184
M:4/2
K:Ab
V:1 treble 
V:2 treble 
V:3 bass 
V:4 bass 
V:1
"^Presto" E4 E4 F4 G4 | A8 E8 | c4 A4 F4 B4 | A8 G8 | E4 E4 D4 C4 | F8 E8 | A4 d4 c4 A4 | G8 A8 | %8
 A8 A8 |] %9
V:2
 C4 E4 D4 D4 | C8 C8 | E4 E4 D4 F4 | E8 E8 | C4 C4 A,4 C4 | D8 B,8 | E4 D4 E4 A4 | G8 A8 | F8 E8 |] %9
V:3
 A,4 A,4 A,4 B,4 | E,8 A,8 | A,4 A,4 A,4 D4 | C8 B,8 | A,4 A,4 A,4 A,4 | A,8 G,8 | A,4 A,4 A,4 C4 | %7
 D8 C8 | D8 C8 |] %9
V:4
 A,,4 C,4 D,4 B,,4 | A,,8 A,,8 | A,,4 C,4 D,4 B,,4 | E,8 E,8 | A,4 _G,4 F,4 E,4 | D,8 E,8 | %6
 C,4 F,4 E,4 E,4 | E,8 A,8 | D,8 A,,8 |] %9

